X:1
T:Udite amanti
T:Horatio Vecchi
T:Source : Canzonette a tre voci di H.Vecchi et di G.Capilupi da Modena---Venetia---Ang.Gardano---1597. Editor : André Vierendeels (04/03/17).
T:Notes Original clefs : C1, C2, C4 Editorial accidentals above the staff Lute accompaniment in not added in this edition 
T:Udite amanti
T:©
T:©
C:Horatio Vecchi
Z:©
%%score [ 1 2 3 ]
L:1/8
Q:1/4=120
M:2/2
K:C
V:1 treble nm="Soprano" snm="S"
V:2 treble nm="Alto" snm="A"
V:3 treble-8 nm="Tenor" snm="T"
V:1
"^1)" z2 E2 E2 E2 | F2 E2 F4 | E4 z2 G2 | A2 G2 A2 B2 | c2 B2 A2 A2 | G4 G2 G2 | G2 A2 _B2 A2 | %7
w: U- di- te'u-|di- te'a- man-|ti, l'a-|mor di Don- na'è|qual mu- si- ca|no- va, ch'o-|gni can- tor si|
w: Co- si'o- gni|Don- na bel-|la men-|tre che'l va- go'A-|pril ha nel bel|vi- so, o-|gn'a- ma- tor per|
 FEFG F2 F2 | E2 E2 E4 |[M:2/4] D4 ::[M:2/2] z2 A2 A2 c2 | c2 c2 c2 c2 | _B2 A2 G4 | A4 z4 | %14
w: gran _ _ _ _ pia-|cer vi tro-|va,|ma quel che|dian- ci'e- gli can-|to con gio-|ia,|
w: lei _ _ _ _ ri-|man con qui-|so;|Ma quan- do'il|Ver- no'in- ar- ri-|di- sce'i fio-|ri,|
 z2 G2 G2 F2 | G2 A2 G2 F2 | G2 A2 G4 | G4 z2 F2 | F2 E2 F2 G2 | F2 D2 E2 F2 | E4 !fermata!D4 :| %21
w: di- poi gli|vien per la vec-|chiez- z'a no-|ia, di-|poi gli vien per|la vec- chiez- z'a|no- ia.|
w: fug- gon gl'a-|man- ti me- sti'e|pien d'hor- ro-|ri, fug-|gon gli'a- man- ti|me- sti'e pien d'hor-|ro- ri.|
V:2
"^2)""^1)" z2 C2 B,2 ^C2 | D2 ^C2 D4 | ^C4 z2 D2 | F2 E2 F2 E2 | A2 G2 F2 F2 | E4 E2 E2 | %6
w: U- di te'u-|di- te'a- man-|ti, l'a-|mor di Don- na'è|qual mu- si- ca|no- va, ch'o-|
w: Tu ca- ra|mi'An- gio- let-|ta, per-|che sei be- la|non tin- su- per-|bi- re, O|
 D2 C2 D2 C2 | DCDE D2 C2 | C2 B,2 ^C4 |[M:2/4] D4 ::[M:2/2] z2 F2 F2 G2 | A2 A2 A2 A2 | G2 F2 E4 | %13
w: gni can- tor si|gran _ _ _ _ pia-|cer vi tro-|va,|ma quel che|dian- ci'e- gli can-|to con gio-|
w: per- che'l tuo can-|tar _ _ _ _ stien|tut- ti'au- di-|re,|che'l tuo bell'|e'l tuo cant' ha-|vr'an- cor fi-|
 F4 z2 E2 | E2 D2 E2 F2 | E2 F2 E2 D2 | E4 E4 | z2 D2 D2 C2 |"^b" D2 E2 D2 B,2 | C2 D2 ^C2 D2- | %20
w: ia, di|poi gli vien per|la vec- chiez- z'a|no- ia,|di poi gli|vien per la vec-|chiez- z'a no- *|
w: ne, quai|ro- se qian- do'il|sol da noi de-|cli- ne,|quai ro- se|quan- do'il sol da|noi de- cli- *|
 D2 ^C2 !fermata!D4 :| %21
w: * * ia.|
w: * * ne.|
V:3
"^3)""^1)""^4)" z2 A2 ^G2 A2 | D2 A2 D4 | A4 z2 G2 | F2 G2 F2 G2 | F2 G2 A2 B2 | c4 c2 c2 | %6
w: U- di- te'u-|di- te'a- man-|ti, l'a-|mor di Don- na'è|qual mu- si- ca|no- va, ch'io-|
w: Hor vuoi ch'io|ti con- si-|gli? Fa|co- pi'al mon- do|di co- te- ste|go- te, qual|
 _B2 A2 G2 A2 | _B6 A2 | A2 G2 A4 |[M:2/4] D4 ::[M:2/2] z2 d2 d2 e2 | f2 f2 f2 f2 | %12
w: gni can- tor si|gran pia-|cer vi tro-|va,|ma quel che|dian- ci'e- gli can-|
w: Mu- si- co suol|far de|le sue no-|te,|che s'al- tri|bra- m'a- mi- ci|
"^b""^b" B2 B2 c4 | F4 z2 c2 | c2 B2 c2 d2 | c2 A2 c2 d2 | c4 c4 | z2 _B2 B2 A2 | _B2 c2 B2 G2 | %19
w: to con gio-|ia, di|poi gli vien per|la vec- chiez- z'a|no- ia,|di poi gli|vien per la vec-|
w: d'ac- qui- sta-|re, non|de sin' à l'e-|stre- mo suo tar-|da- re,|non de sin'|à l'e- stre- mo|
 A2 _B2 A4- | A4 !fermata!D4 :| %21
w: chiez- z'a no-|* ia.|
w: suo tar- da-|* re.|

